brandFactory_export/3.Masa/Lanzar_3Masa.svg

<?xml version="1.0" encoding="UTF-8"?>
<svg width="24px" height="24px" viewBox="0 0 24 24" version="1.1" xmlns="http://www.w3.org/2000/svg" xmlns:xlink="http://www.w3.org/1999/xlink">
    <title>3.Masa/Lanzar_3Masa</title>
    <g id="Symbols" stroke="none" stroke-width="1" fill="none" fill-rule="evenodd">
        <g id="3.Masa/Lanzar_3Masa" fill="#5CB615" fill-rule="nonzero">
            <path d="M0.672268908,23.6268908 C0.302521008,23.6268908 0,23.3277311 0,22.9546218 C0,22.7764706 0.0705882353,22.605042 0.198319328,22.4773109 L5.75798319,16.9176471 C6.02016807,16.6554622 6.44705882,16.6554622 6.7092437,16.9176471 C6.97142857,17.1798319 6.97142857,17.6067227 6.7092437,17.8689076 L1.14621849,23.4285714 C1.02184874,23.5563025 0.850420168,23.6268908 0.672268908,23.6268908 Z M6.71596639,23.6302521 C6.34621849,23.6302521 6.04369748,23.3310924 6.04369748,22.9579832 C6.04369748,22.7831933 6.11092437,22.6117647 6.23529412,22.487395 L8.98823529,19.6672269 C9.24033613,19.394958 9.66386555,19.3747899 9.9394958,19.6268908 C10.2117647,19.8789916 10.2319328,20.302521 9.97983193,20.5781513 C9.9697479,20.5882353 9.96302521,20.5983193 9.95294118,20.605042 L7.2,23.4285714 C7.07226891,23.5596639 6.89747899,23.6302521 6.71596639,23.6302521 L6.71596639,23.6302521 Z M0.732773109,17.6470588 C0.36302521,17.6470588 0.0605042017,17.3478992 0.0605042017,16.9747899 C0.0605042017,16.8 0.127731092,16.6285714 0.25210084,16.5042017 L3.00504202,13.6840336 C3.26386555,13.4184874 3.6907563,13.4151261 3.95630252,13.6739496 C4.22184874,13.9327731 4.22521008,14.3596639 3.96638655,14.6252101 L1.21344538,17.4453782 C1.08907563,17.5764706 0.914285714,17.6470588 0.732773109,17.6470588 Z M21.9596639,0 L12.8571429,0 C11.9294118,0 11.1764706,0.752941176 11.1764706,1.68067227 C11.1764706,2.12773109 11.3546218,2.55462185 11.6672269,2.87058824 L12.5042017,3.70756303 L5.03865546,11.1731092 C4.38319328,11.8285714 4.38319328,12.8941176 5.03865546,13.5495798 L10.0739496,18.5882353 C10.7294118,19.2436975 11.794958,19.2436975 12.4504202,18.5882353 L19.9159664,11.1193277 L20.7663866,11.9731092 C21.0789916,12.2890756 21.5058824,12.4672269 21.9529412,12.4672269 C22.8806723,12.4672269 23.6336134,11.7142857 23.6369748,10.7865546 L23.6369748,1.68067227 C23.6369748,0.752941176 22.887395,0 21.9596639,0 Z" id="Lanzar_3Masa"></path>
        </g>
    </g>
</svg>

<svg width="24" height="24" viewBox="0 0 24 24" xmlns="http://www.w3.org/2000/svg"><path d="M.672 23.627a.672.672 0 01-.474-1.15l5.56-5.56a.674.674 0 01.951.952l-5.563 5.56a.66.66 0 01-.474.198zm6.044.003a.672.672 0 01-.48-1.143l2.752-2.82a.674.674 0 01.992.911c-.01.01-.017.02-.027.027L7.2 23.429a.673.673 0 01-.484.201zM.733 17.647a.672.672 0 01-.48-1.143l2.752-2.82a.674.674 0 01.961.941l-2.753 2.82a.66.66 0 01-.48.202zM21.96 0h-9.103a1.681 1.681 0 00-1.19 2.87l.837.838-7.465 7.465a1.682 1.682 0 000 2.377l5.035 5.038a1.682 1.682 0 002.376 0l7.466-7.469.85.854c.313.316.74.494 1.187.494.928 0 1.68-.753 1.684-1.68V1.68C23.637.753 22.887 0 21.96 0z" fill="#5CB615" fill-rule="nonzero"/></svg>
